X: 38962
T: Swaggering Jig, The
R: slip jig
M: 9/8
K: Gmajor
c|:BGG AGE DEG|BAG GFG A2c|
BGG AGE DEG|cBA BGE D2c:|
[1 Bdd dBG A2c|Bdd dge dBG|cBA BGE D2c:|
[2 Bdd dBG A2f|gfe dBG cBA|cBA BGE D3||
d|:BGG AGE GED|D/E/GE DEG A2d|BGG AGE GED|E/F/GE DEF G2 G:|
Bdd edB BAG|Bdd edB A2A|Bdd edB BAG|GED DEF G2G|
Bdd edB BAG|Bdd gdB A2A|Bdd edB BAG|GED DEF G3|

